X:1
T:Victory (Whitehead), SM
T:H. A. Whitehead, before 1906
T:Victory (Whitehead), SM
T:Public Domain
C:H. A. Whitehead, before 1906
Z:Public Domain
%%score ( 1 2 ) ( 3 4 )
L:1/8
M:4/4
K:G
V:1 treble 
V:2 treble 
V:3 bass 
V:4 bass 
V:1
 [DG]2 | [EG]2 [DG]2 [EA]2 D2 | [DB]6 [^DB]2 | [EB]2 [=FB]2 [Ec]2 [EB]2 | [FA]6 [Fd]2 | %5
 [Gd]2 (cB) [Ac]2 [=Gc]2 | [Fc]2 (BA) (G[FA])(Bc) | [Gd]2 [GB]2 [FA]3 G | G6 |] %9
V:2
 x2 | x6 D2 | x8 | x8 | x8 | x2 ^G2 x4 | x2 F2 G G2 x | x7 G | G6 |] %9
V:3
 [G,B,]2 | [E,B,]2 [B,,G,]2 [C,G,]2 [D,F,]2 | [G,,G,]6 [B,,F,]2 | %3
 [E,G,]2 [D,G,]2 [C,G,]2 [^C,G,]2 | [D,F,]6 [B,,B,]2 | [E,B,]2 [E,E]2 [A,E]2 [A,_E]2 | %6
 [D,D]2 (DC) ([B,D][A,C])([G,B,][E,G,]) | [D,B,]2 [D,D]2 [D,C]3 [G,B,] | [G,B,]6 |] %9
V:4
 x2 | x8 | x8 | x8 | x8 | x8 | x2 D2 x4 | x8 | x6 |] %9

